X: 364
T:L'homme arm\'e
N: Derived from Jos2823-Lhomme_arme.krn
C: Josquin des Prez
%%abc-version 2.0
%%abcx-abcm2ps-target-version 5.9.1 (29 Sep 2008)
%%abc-creator hum2abc beta
%%abcx-conversion-date 2019/02/12 16:15:54
%%abc-edited-by Jesse Rodin
%%abc-edited-by Jesse Rodin; Victoria Chang 2011/08/09/
%%abcx-initial-encoding-date 2011/08/09/
%%humdrum-veritas 226060995
%%humdrum-veritas-data 342096118
%%linebreak <none>
%%barnumbers 0
L: 1/4
M: 3/1
Q: 1/2=120
%%staves [1 2 3 4]
V: 1 clef=treble
V: 2 clef=treble-8
V: 3 clef=treble-8
V: 4 clef=bass
K: F
[V:1] z12 | 
[V:2] G6c6 | 
[V:3] z12 | 
[V:4] z12 | 
[V:1] z12 | 
[V:2] B6A6 | 
[V:3] z12 | 
[V:4] G,6C6 | 
[V:1] z12 | 
[V:2] G3d3e3f3 | 
[V:3] G6c6 | 
[V:4] B,6A,6 | 
[V:1] G6c6 | 
[V:2] g3d3f3c3 | 
[V:3] B6A6 | 
[V:4] G,6F,6 | 
[V:1] B6A6 | 
[V:2] g6f6 | 
[V:3] G6d6 | 
[V:4] G,3E,3F,3D,3 | 
[V:1] G6F6 | 
[V:2] B3c3A3B3 | 
[V:3] G6d6 | 
[V:4] _E,3C,3D,3B,,3 | 
[V:1] G3B3A6 | 
[V:2] G3g3e3f3 | 
[V:3] d6c6 | 
[V:4] B,3G,3A,3F,3 | 
[V:1] G6F6 | 
[V:2] d3e3c3d3 | 
[V:3] B6A6 | 
[V:4] G,3E,3F,3D,3 | 
[V:1] G12 | 
[V:2] B3G3B3c3 | 
[V:3] G6g6 | 
[V:4] _E,12 | 
[V:1] A6D3A3 | 
[V:2] d3A3B3A3 | 
[V:3] f6f6 | 
[V:4] D,6D,6 | 
[V:1] D3G3D6 | 
[V:2] B6G3d3 | 
[V:3] g3d3g3f3 | 
[V:4] G,6B,6 | 
[V:1] B3G3d6 | 
[V:2] B6B3G3 | 
[V:3] g3e3d3g3 | 
[V:4] G,6B,6 | 
[V:1] c3A3F6 | 
[V:2] c6d3A3 | 
[V:3] a12 | 
[V:4] A,3F,3D,3F,3 | 
[V:1] G3E3D3B3 | 
[V:2] c6B3G3 | 
[V:3] g12 | 
[V:4] C,6G,6 | 
[V:1] A6A3D3 | 
[V:2] d3D3A3B3 | 
[V:3] f12 | 
[V:4] D,3F,3D,3B,,3 | 
[V:1] G3G3c6 | 
[V:2] G3c6G3 | 
[V:3] e12 | 
[V:4] C,6A,,3C,3 | 
[V:1] B6A3G3 | 
[V:2] G6D3B3 | 
[V:3] d12- | 
[V:4] G,,3G,3F,3G,3 | 
[V:1] A3B3A3G3 | 
[V:2] A3G3D3B3 | 
[V:3] d12- | 
[V:4] D,3G,3F,3G,3 | 
[V:1] F12 |]  
[V:2] A12 |]  
[V:3] d12 |]  
[V:4] D,12 |]  



